X:290
T:Gan Ainm
M:6/8
L:1/8
R:Jig
D:Session tape - Corofin, Clare
Z:Bernie Stocks
K:G
G2B cAF | Gge dBG |1 c3 B3 | ABG FED :|2 cBA Bdg | fef g3 :: gdB gdB |\
gaf gdB | gfg fag | fdd def | g3 f3 | efe def | gdB ABc | BGG G3 :|
